small/extra/status/standard/object-locked.svg

<?xml version="1.0" encoding="UTF-8" standalone="no"?>
<svg
   xmlns:dc="http://purl.org/dc/elements/1.1/"
   xmlns:cc="http://creativecommons.org/ns#"
   xmlns:rdf="http://www.w3.org/1999/02/22-rdf-syntax-ns#"
   xmlns:svg="http://www.w3.org/2000/svg"
   xmlns="http://www.w3.org/2000/svg"
   xmlns:xlink="http://www.w3.org/1999/xlink"
   id="svg2"
   viewBox="0 0 512 512"
   height="100%"
   width="100%"
   version="1.1">
  <metadata
     id="metadata106">
    <rdf:RDF>
      <cc:Work
         rdf:about="">
        <dc:format>image/svg+xml</dc:format>
        <dc:type
           rdf:resource="http://purl.org/dc/dcmitype/StillImage" />
        <dc:title />
      </cc:Work>
    </rdf:RDF>
  </metadata>
  <defs
     id="defs104">
    <filter
       id="filter3174"
       color-interpolation-filters="sRGB">
      <feGaussianBlur
         id="feGaussianBlur3176"
         stdDeviation="1.71" />
    </filter>
    <linearGradient
       id="ButtonShadow"
       y2="7.0165"
       gradientUnits="userSpaceOnUse"
       x2="45.448"
       gradientTransform="scale(1.0059,0.99417)"
       y1="92.54"
       x1="45.448">
      <stop
         id="stop3750-1"
         offset="0" />
      <stop
         id="stop3752-6"
         style="stop-opacity:.58824"
         offset="1" />
    </linearGradient>
    <filter
       id="filter3174-2"
       color-interpolation-filters="sRGB">
      <feGaussianBlur
         id="feGaussianBlur3176-6"
         stdDeviation="1.71" />
    </filter>
    <linearGradient
       y2="7.0165"
       x2="45.448"
       y1="92.54"
       x1="45.448"
       gradientTransform="scale(1.0059,0.99417)"
       gradientUnits="userSpaceOnUse"
       id="linearGradient62873"
       xlink:href="#ButtonShadow" />
  </defs>
  <g
     id="layer2"
     style="display:none"
     transform="matrix(6.7274189,0,0,6.7274189,-1328.8681,-712.41656)">
    <rect
       id="rect3745"
       style="opacity:0.9;fill:url(#ButtonShadow);filter:url(#filter3174)"
       rx="6"
       ry="6"
       height="85"
       width="86"
       y="7"
       x="5" />
  </g>
  <g
     id="layer2-1"
     style="display:none"
     transform="matrix(6.7274189,0,0,6.7274189,-1522.6492,-780.80988)">
    <rect
       id="rect3745-0"
       style="opacity:0.9;fill:url(#linearGradient62873);filter:url(#filter3174-2)"
       rx="6"
       ry="6"
       height="85"
       width="86"
       y="7"
       x="5" />
  </g>
  <path
     style="fill:#cd1d31"
     id="path9"
     d="m 25.99966,-4.2e-4 c -14.397,0 -26,11.603 -26,26 l 0,460 c 0,14.397 11.603,26 26,26 l 460,0 c 14.397,0 26,-11.603 26,-26 l 0,-460 c 0,-14.397 -11.603,-26 -26,-26 l -460,0" />
  <path
     id="path91"
     d="m 254.17025,41.00042 c -56.27,0 -113.25,37.58961 -113.25,94.59961 l 0,103.71875 -41.73047,0 0,231.68164 41,41 345.81055,0 c 14.397,0 26,-11.603 26,-26 l 0,-242.25976 L 343.70931,75.44964 C 323.68169,55.42201 292.91368,41.00774 254.17416,41.00433 l -0.004,-0.004 z"
     style="opacity:0.25;fill-rule:evenodd" />
  <path
     d="m 254.16966,40.99958 c -56.27,0 -113.25,37.59 -113.25,94.6 l 0,103.72 -41.73,0 0,231.68 313.63,0 0,-231.68 -42.99,0 0,-106.59 c 0,-42.843 -44.31,-91.73 -115.66,-91.73 m -0.806,51.96 c 30.3,-0.158 63.3,20.99 63.3,53.22 l 0,93.13 -124.23,0 0.05,-0.05 0,-92.68 c 0,-34.959 34.816,-53.49 60.881,-53.624 m 1.412,197.16 c 17.337,0 31.398,14.06 31.398,31.398 0,10.337 -5.04,19.48 -12.75,25.2 l 12.448,69.852 -61.64,0 12.347,-69.5 c -7.978,-5.692 -13.211,-15.01 -13.211,-25.552 0,-17.337 14.06,-31.398 31.398,-31.398"
     id="path143"
     style="fill:#ffffff;fill-rule:evenodd" />
</svg>

<?xml version="1.0" encoding="UTF-8" standalone="no"?>
<!-- Created with Inkscape (http://www.inkscape.org/) -->

<svg
   xmlns:dc="http://purl.org/dc/elements/1.1/"
   xmlns:cc="http://creativecommons.org/ns#"
   xmlns:rdf="http://www.w3.org/1999/02/22-rdf-syntax-ns#"
   xmlns:svg="http://www.w3.org/2000/svg"
   xmlns="http://www.w3.org/2000/svg"
   xmlns:inkscape="http://www.inkscape.org/namespaces/inkscape"
   version="1.1"
   width="100%"
   height="100%"
   viewBox="0 0 512 512"
   id="svg2">
  <metadata
     id="metadata147">
    <rdf:RDF>
      <cc:Work
         rdf:about="">
        <dc:format>image/svg+xml</dc:format>
        <dc:type
           rdf:resource="http://purl.org/dc/dcmitype/StillImage" />
      </cc:Work>
    </rdf:RDF>
  </metadata>
  <defs
     id="defs4">
    <clipPath
       id="0">
      <path
         d="M 26,0 C 11.603,0 0,11.603 0,26 v 460 c 0,14.397 11.603,26 26,26 h 460 c 14.397,0 26,-11.603 26,-26 V 26 C 512,11.603 500.397,0 486,0 H 26"
         inkscape:connector-curvature="0"
         id="path7" />
    </clipPath>
  </defs>
  <path
     d="M 26,0 C 11.603,0 0,11.603 0,26 v 460 c 0,14.397 11.603,26 26,26 h 460 c 14.397,0 26,-11.603 26,-26 V 26 C 512,11.603 500.397,0 486,0 H 26"
     inkscape:connector-curvature="0"
     id="path9"
     style="fill:#cd1d31" />
  <text
     x="-216.25999"
     y="-328.37"
     id="text11"
     style="font-size:129.22999573px;line-height:125%;letter-spacing:0;word-spacing:0;font-family:Gentium Book Basic">
    <tspan
       x="-216.25999"
       y="-328.37"
       id="tspan13" />
  </text>
  <text
     x="143.19"
     y="-1666.84"
     transform="scale(4.0128,0.2492)"
     id="text15"
     style="font-size:46.95399857px;text-anchor:middle;font-family:Arial" />
  <text
     x="365.01001"
     y="-408.37"
     id="text17"
     style="font-size:129.22999573px;line-height:125%;letter-spacing:0;word-spacing:0;font-family:Gentium Book Basic">
    <tspan
       x="365.01001"
       y="-408.37"
       id="tspan19" />
  </text>
  <text
     x="288.04001"
     y="-1987.87"
     transform="scale(4.0128,0.2492)"
     id="text21"
     style="font-size:46.95399857px;text-anchor:middle;font-family:Arial" />
  <text
     x="-706.57001"
     y="-589.63"
     id="text23"
     style="font-size:129.22999573px;line-height:125%;letter-spacing:0;word-spacing:0;font-family:Gentium Book Basic">
    <tspan
       x="-706.57001"
       y="-589.63"
       id="tspan25" />
  </text>
  <text
     x="21"
     y="-2715.23"
     transform="scale(4.0128,0.2492)"
     id="text27"
     style="font-size:46.95399857px;text-anchor:middle;font-family:Arial" />
  <text
     x="391.48001"
     y="-806.09998"
     id="text29"
     style="font-size:129.22999573px;line-height:125%;letter-spacing:0;word-spacing:0;font-family:Gentium Book Basic">
    <tspan
       x="391.48001"
       y="-806.09998"
       id="tspan31" />
  </text>
  <text
     x="294.64001"
     y="-3583.8899"
     transform="scale(4.0128,0.2492)"
     id="text33"
     style="font-size:46.95399857px;text-anchor:middle;font-family:Arial" />
  <text
     x="972.75"
     y="-886.10999"
     id="text35"
     style="font-size:129.22999573px;line-height:125%;letter-spacing:0;word-spacing:0;font-family:Gentium Book Basic">
    <tspan
       x="972.75"
       y="-886.10999"
       id="tspan37" />
  </text>
  <text
     x="439.48999"
     y="-3904.9299"
     transform="scale(4.0128,0.2492)"
     id="text39"
     style="font-size:46.95399857px;text-anchor:middle;font-family:Arial" />
  <text
     x="583.63"
     y="-1358.51"
     id="text41"
     style="font-size:129.22999573px;line-height:125%;letter-spacing:0;word-spacing:0;font-family:Gentium Book Basic">
    <tspan
       x="583.63"
       y="-1358.51"
       id="tspan43" />
  </text>
  <text
     x="342.51999"
     y="-5800.5801"
     transform="scale(4.0128,0.2492)"
     id="text45"
     style="font-size:46.95399857px;text-anchor:middle;font-family:Arial" />
  <text
     x="1164.89"
     y="-1438.51"
     id="text47"
     style="font-size:129.22999573px;line-height:125%;letter-spacing:0;word-spacing:0;font-family:Gentium Book Basic">
    <tspan
       x="1164.89"
       y="-1438.51"
       id="tspan49" />
  </text>
  <text
     x="487.37"
     y="-6121.6099"
     transform="scale(4.0128,0.2492)"
     id="text51"
     style="font-size:46.95399857px;text-anchor:middle;font-family:Arial" />
  <g
     transform="translate(-945.9,-559.73)"
     id="g53"
     style="font-size:208.33000183px;line-height:125%;letter-spacing:0;word-spacing:0;font-family:Gentium Book Basic">
    <text
       x="277.98999"
       y="535.94"
       id="text55">
      <tspan
         x="277.98999"
         y="535.94"
         id="tspan57" />
    </text>
    <text
       x="-860.84003"
       y="11.553"
       id="text59">
      <tspan
         x="-860.84003"
         y="11.553"
         id="tspan61" />
    </text>
    <text
       x="-3219.6699"
       y="289.67001"
       id="text63">
      <tspan
         x="-3219.6699"
         y="289.67001"
         id="tspan65" />
    </text>
    <text
       x="-2931.46"
       y="62.380001"
       id="text67">
      <tspan
         x="-2931.46"
         y="62.380001"
         id="tspan69" />
    </text>
    <text
       x="1263.14"
       y="-194.52"
       id="text71">
      <tspan
         x="1263.14"
         y="-194.52"
         id="tspan73" />
    </text>
    <text
       x="-864.78998"
       y="-49.48"
       id="text75">
      <tspan
         x="-864.78998"
         y="-49.48"
         id="tspan77" />
    </text>
    <text
       x="-3223.6201"
       y="228.64"
       id="text79">
      <tspan
         x="-3223.6201"
         y="228.64"
         id="tspan81" />
    </text>
    <text
       x="-2935.4099"
       y="1.35"
       id="text83">
      <tspan
         x="-2935.4099"
         y="1.35"
         id="tspan85" />
    </text>
  </g>
  <g
     id="g87"
     style="fill-rule:evenodd">
    <g
       clip-path="url(#0)"
       id="g89"
       style="opacity:0.25">
      <path
         d="M 254.17,41 C 197.9,41 140.92,78.59 140.92,135.6 l 353.55,353.55 c 0,-57.01 56.978,-94.6 113.25,-94.6 z"
         inkscape:connector-curvature="0"
         id="path91" />
      <path
         d="M 140.92,135.6 V 239.32 L 494.47,592.87 V 489.15 z"
         inkscape:connector-curvature="0"
         id="path93" />
      <path
         d="M 140.92,239.32 H 99.19 l 353.55,353.55 h 41.73 z"
         inkscape:connector-curvature="0"
         id="path95" />
      <path
         d="M 99.19,239.32 V 471 L 452.74,824.55 V 592.87 z"
         inkscape:connector-curvature="0"
         id="path97" />
      <path
         d="M 99.19,471 H 412.82 L 766.37,824.55 H 452.74 z"
         inkscape:connector-curvature="0"
         id="path99" />
      <path
         d="M 412.81,471 V 239.32 l 353.55,353.55 v 231.68 z"
         inkscape:connector-curvature="0"
         id="path101" />
      <path
         d="m 412.81,239.32 h -42.99 l 353.55,353.55 h 42.99 z"
         inkscape:connector-curvature="0"
         id="path103" />
      <path
         d="M 369.82,239.32 V 132.73 l 353.55,353.55 v 106.59 z"
         inkscape:connector-curvature="0"
         id="path105" />
      <path
         d="m 369.82,132.73 c 0,-19.579 -9.254,-40.42 -26.11,-57.28 L 697.26,429 c 16.86,16.86 26.11,37.701 26.11,57.28 z"
         inkscape:connector-curvature="0"
         id="path107" />
      <path
         d="M 343.71,75.45 C 323.68,55.42 292.906,41.004 254.16,41.004 l 353.55,353.55 c 38.746,0 69.52,14.413 89.55,34.446 z"
         inkscape:connector-curvature="0"
         id="path109" />
      <path
         d="m 253.35,92.96 c 17.711,-0.093 36.34,7.095 48.768,19.52 l 353.55,353.55 C 643.242,453.604 624.608,446.417 606.9,446.51 z"
         inkscape:connector-curvature="0"
         id="path111" />
      <path
         d="m 302.12,112.48 c 8.832,8.832 14.529,20.311 14.529,33.704 l 353.55,353.55 c 0,-13.392 -5.696,-24.871 -14.529,-33.704 z"
         inkscape:connector-curvature="0"
         id="path113" />
      <path
         d="m 316.65,146.18 v 93.13 L 670.2,592.86 v -93.13 z"
         inkscape:connector-curvature="0"
         id="path115" />
      <path
         d="M 316.65,239.32 H 192.42 L 545.97,592.87 H 670.2 z"
         inkscape:connector-curvature="0"
         id="path117" />
      <path
         d="m 192.42,239.32 0.05,-0.05 353.55,353.55 -0.05,0.05 z"
         inkscape:connector-curvature="0"
         id="path119" />
      <path
         d="m 192.47,239.27 v -92.68 l 353.55,353.55 v 92.68 z"
         inkscape:connector-curvature="0"
         id="path121" />
      <path
         d="m 192.47,146.59 c 0,-34.959 34.816,-53.49 60.881,-53.624 l 353.55,353.55 c -26.07,0.136 -60.881,18.665 -60.881,53.624 z"
         inkscape:connector-curvature="0"
         id="path123" />
      <path
         d="m 254.76,290.13 c 8.668,0 16.518,3.515 22.2,9.198 l 353.55,353.55 c -5.682,-5.682 -13.532,-9.198 -22.2,-9.198 z"
         inkscape:connector-curvature="0"
         id="path125" />
      <path
         d="m 276.96,299.33 c 5.682,5.682 9.198,13.532 9.198,22.2 l 353.55,353.55 c 0,-8.668 -3.515,-16.518 -9.198,-22.2 z"
         inkscape:connector-curvature="0"
         id="path127" />
      <path
         d="m 286.16,321.53 c 0,10.337 -5.04,19.48 -12.75,25.2 l 353.55,353.55 c 7.712,-5.724 12.75,-14.868 12.75,-25.2 z"
         inkscape:connector-curvature="0"
         id="path129" />
      <path
         d="m 273.41,346.73 12.448,69.852 353.55,353.55 -12.448,-69.852 z"
         inkscape:connector-curvature="0"
         id="path131" />
      <path
         d="M 285.85,416.58 H 224.21 L 577.76,770.13 H 639.4 z"
         inkscape:connector-curvature="0"
         id="path133" />
      <path
         d="m 224.21,416.58 12.347,-69.5 353.55,353.55 -12.347,69.5 z"
         inkscape:connector-curvature="0"
         id="path135" />
      <path
         d="m 236.56,347.08 c -1.43,-1.02 -2.772,-2.157 -4.01,-3.397 l 353.55,353.55 c 1.239,1.239 2.581,2.376 4.01,3.397 z"
         inkscape:connector-curvature="0"
         id="path137" />
      <path
         d="m 232.55,343.69 c -5.674,-5.674 -9.199,-13.499 -9.199,-22.16 l 353.55,353.55 c 0,8.656 3.525,16.481 9.199,22.16 z"
         inkscape:connector-curvature="0"
         id="path139" />
      <path
         d="m 223.35,321.53 c 0,-17.337 14.06,-31.398 31.398,-31.398 l 353.55,353.55 c -17.337,0 -31.398,14.06 -31.398,31.398 z"
         inkscape:connector-curvature="0"
         id="path141" />
    </g>
    <path
       d="M 254.17,41 C 197.9,41 140.92,78.59 140.92,135.6 V 239.32 H 99.19 V 471 H 412.82 V 239.32 H 369.83 V 132.73 C 369.83,89.887 325.52,41 254.17,41 m -0.806,51.96 c 30.3,-0.158 63.3,20.99 63.3,53.22 v 93.13 h -124.23 l 0.05,-0.05 v -92.68 c 0,-34.959 34.816,-53.49 60.881,-53.624 m 1.412,197.16 c 17.337,0 31.398,14.06 31.398,31.398 0,10.337 -5.04,19.48 -12.75,25.2 l 12.448,69.852 h -61.64 l 12.347,-69.5 c -7.978,-5.692 -13.211,-15.01 -13.211,-25.552 0,-17.337 14.06,-31.398 31.398,-31.398"
       inkscape:connector-curvature="0"
       id="path143"
       style="fill:#ffffff" />
  </g>
</svg>
